icons/polygon-select-16.svg

<svg id="icons" xmlns="http://www.w3.org/2000/svg" viewBox="0 0 16 16"><defs><style>.cls-1{fill:none;}</style></defs><path d="M15.982,11,8,5.03564v9.94324l2.11621-2.75671L12,15.95215,14.55469,14.667,12.7168,11Zm-2.7691,3.22217-.77051.38818L10.27148,10.312,9,12.02393V7.00342L13,10H11.09668ZM2,9H1V7H2ZM1,4,3,5.02856V6.153L2,5.63867V6H1ZM4,5.54285,6,6.57141V7.69617L4,6.66742ZM2,12H1V10H2Zm2,2H6v1H4ZM2,14H3v1H1V13H2Zm9.24481-9H10V4.67346L12,3.2041v1.241ZM14,7h1V8.98322l-1-.74555Zm0-4.02441-1,.73474v-1.241L15,1V3H14ZM15,6H14V4h1Z"/><rect class="cls-1" width="16" height="16"/></svg>

<svg xmlns="http://www.w3.org/2000/svg" viewBox="0 0 16 16"><path d="M15.982 11L8 5.036v9.943l2.116-2.757L12 15.952l2.555-1.285L12.717 11zm-2.77 3.222l-.77.388-2.17-4.298L9 12.024v-5.02L13 10h-1.903zM2 9H1V7h1zM1 4l2 1.029v1.124l-1-.514V6H1zm3 1.543L6 6.57v1.125L4 6.667zM2 12H1v-2h1zm2 2h2v1H4zm-2 0h1v1H1v-2h1zm9.245-9H10v-.327l2-1.469v1.241zM14 7h1v1.983l-1-.745zm0-4.024l-1 .734V2.47L15 1v2h-1zM15 6h-1V4h1z"/><path fill="none" d="M0 0h16v16H0z"/></svg>
